X:2667
T:Polonäs efter Pehr Andersson
S:efter Pehr Andersson
B:Pehr Anderssons notbok, nr 27
B:http://www.smus.se/earkiv/fmk/browselarge.php?lang=sw&katalogid=Ma+1&bildnr=00010
O:Måstorp, Närke
R:Slängpolska
Z:Nils L
M:3/4
L:1/8
K:Em
g2 gf ga | f2 fe fg | "^fjärdedelsnot?"e^d eg fe | ^df B4 |
B2 e^d ef | ga gf ed | cB A2 GF | G2 G4 ::
E2 EF GA | B2 B4 | e2 eg fe | ^d2 B4 |
B2 e^d ef | ga gf gb | ab ge f^d | e2 e4 :|
(:musicend:)
(:music:)
